X: 2
T: The Swallow's Tail
R: reel
M: 4/4
L: 1/8
K: Ador
e2eg eA~A2|eAfA g2ga|gedB dG~G2|BGBd g2fg|
egfg eA~A2|eAfA g3a|bagb aged|egdB A2Bd:|
e2a2 aged|Bdef g2ga|gedB dG~G2|BGBd g2fg|
ea~a2 aged|Bdef g3e|afge dBGB |AcBG A2cd:|

